X:1
T:September
T:Wilhelm Stenhammar (1871-1927)
T:Text: J P Jacobsen
T:Poco lento
T:September
T:©PA Aglert
T:©PA Aglert
T:©PA Aglert
T:©PA Aglert
C:Wilhelm Stenhammar (1871-1927)
Z:©PA Aglert
%%score [ 1 ( 2 3 ) ( 4 5 ) ( 6 7 ) ]
L:1/8
Q:1/4=69
M:6/8
K:A
V:1 treble nm="S"
V:2 treble nm="A"
V:3 treble 
V:4 treble-8 nm="T"
V:5 treble-8 
V:6 bass nm="B"
V:7 bass 
V:1
!p! c>ce c!<(!A!<)!B | (c2!>(! A) F2!>)! G | A!<(!Bc (eg)f/!<)!e/ |!>(! c3- c2!>)! z | %4
w: Al- le de vok- sen- de|skug- * ger har|væ- vet sig sam- * men til|en, *|
!pp! c>ce cAB | (c2 A) F2 F | d>cB cAB | c3- c2 z | c>cd c^AF | %9
w: en- som paa him- me- len|ly- * ser en|stjer- ne saa straa- lan- de|ren, *|sky- er- ne ha- ve saa|
!<(! =G2!<)!!>(! F!>)!!<(! G2!<)!!>(! F!>)! | c>ed cAF | %11
w: tun- ge drøm- me,|blom- ster- nes øj- ne i|
!<(! A2!<)!!>)!!>(! G!<)!!<(! A2!>(! G!>)! |!pp!!<(! (F3 G)Bd!<)! | (fag!>(! e2) c!>)! | %14
w: dug- graad svøm- me,|un- * der- ligt|af- * * * ten-|
!<(! B3!<)!!>(! G2!>)! z |!<(! (A2 c!<)! G!>(!A)F!>)! | (A!<(!ce/!<)!d/!>(! G)A!>)!F | %17
w: vin- den|su- * * * ser,|su- * * * * ser i|
!<(! A3!<)!!>(! G2!>)! z |"^sempre"!pp! (F3 GBd | fag e2) d/ z/ | (fag e2 d) | B2 z z2!ppp! G | %22
w: lin- den,|su- * * *|* * * * ser,|su- * * * *|ser i|
!<(! A6!<)! |!>(! F3!>)! z2 z | z6 |] %25
w: lin-|den.||
V:2
!p! A>AG A!<(!FF!<)! | (^E3!>(! F)=E!>)!D |!<(! (C2 F) G2 G!<)! |!>(! AGF (A2!>)! G) | %4
w: Al- le de vok- sen- de|skug- * ger har|væ- * vet sig|sam- men til en, *|
!pp! (F3 EF)E | [C^E]3 [C=E]2 [CE] | D3 D2 D |!<(! CDE!<)!!>(! ^E2!>)! z | F3 F2 F | %9
w: * * * som|ly- ser en|stjer- ne saa|straa- lan- de ren,|sky- er- ne|
!<(! E2!<)!!>(! C!>)!!<(! E2!<)!!>(! C!>)! | ([E=G]2 F) ^E2 F | %11
w: tun- ge drøm- me,|blom- * ster- nes|
!<(! ^E2!<)!!>(! B,!>)!!<)!!<(! E2!>(! B,!>)! |!pp!!<(! (A,3 B,)DF!<)! | (AcB!>(! G2) E!>)! | %14
w: øj- ne svøm- me,|un- * der- ligt|af- * * * ten-|
!<(! D3!<)!!>(! B,2!>)! z |!<(! [B,C]3-!<)!!>(! [B,C]B,!>)! z | [B,C]3-!<)!!<(!!>(! [B,C]B,!>)! z | %17
w: vin- den|su- * ser,|su- * ser|
!<(! [B,C]3-!<)!!>(! [B,C][B,C]!>)! z |"^sempre"!pp! (A,3 B,DF | AcB G2) F/ z/ | (AcB G2 F) | %21
w: su- * ser|su- * * *|* * * * ser,|su- * * * *|
 D2 z z2!ppp! B, |!<(! C6!<)! |!>(! A,3!>)! z2 z | z6 |] %25
w: ser i|lin-|den.||
V:3
 x6 | x6 | x6 | x6 | (F3 E2) E | x6 | x6 | x6 | x6 | x6 | x6 | x6 | x6 | x6 | x6 | x6 | x6 | x6 | %18
w: ||||en- * *||||||||||||||
 x6 | x6 | x6 | x6 | x6 | x6 | x6 |] %25
w: |||||||
V:4
!p! c>cc c!<(!cG!<)! | (G2!>(! B) A2!>)! B | c!<(!GA (ce)d/!<)!c/ |!>(! (c2 d c2 [B^e])!>)! | %4
w: Al- le de vok- sen- de|skug- * ger har|væ- vet sig sam- * men til|en, * * *|
!pp! (f2 A GE)G | [^EB]3 [F^A]2 [FA] | (F2 G) (!courtesy!=AF)G |!<(! AB!<)!c!>(! B2!>)! z | %8
w: en- * * * som|ly- ser en|stjer- * ne * saa|straa- lan- de ren,|
 B3 ^A2 A |!<(! B2!<)!!>(! ^A!>)!!<(! B2!<)!!>(! A!>)! | (B2 ^A) =A2 A | %11
w: sky- er- ne|tun- ge drøm- me,|blom- * ster- nes|
!<(! B2!>)!!>(! ^E!<(! B2!<)!!>(! E!<)!!>)! |!pp!!<(! (F3 D)FA!<)! | (ced!>(! B2) G!>)! | %14
w: øj- ne svøm- me,|un- * der- ligt|af- * * * ten-|
!<(! F3!<)!!>(! F2!>)! z |!<(! ^E3-!<)!!>(! EF!>)! z | ^E3-!<)!!<(! E!>(!F!>)! z | %17
w: vin- den|su- * ser,|su- * ser|
!<(! ^E3-!<)! E!>)!!>(!E z |"^sempre"!pp! (F3 DFA | ced B2) A/ z/ | (ced) B2 z | z2 z!ppp! (f3- | %22
w: su- * ser|su- * * *|* * * * ser,|su- * * ser|su-|
!<(! f3 [Ac]3-!<)! |!>(! [Ac]6)!>)! | [Ac]3 z2 z |] %25
w: ||ser.|
V:5
 x6 | x6 | x6 | x6 | A3 E2 D | x6 | x6 | x6 | x6 | x6 | x6 | x6 | x6 | x6 | x6 | x6 | x6 | x6 | %18
 x6 | x6 | x6 | x6 | x6 | x6 | x6 |] %25
V:6
!p! F,>F,C,!<(! F,E,D,!<)! | C,3!>(! (D,C,)!>)!B,, |!<(! F,3 E,2 E,!<)! | %3
w: Al- le de vok- sen- de|skug- ger * har|væ- vet sig|
w: |||
!>(! ([A,,E,]3- [A,,E,]B,,)!>)!C, |!pp! (D,3- D,C,)B,, | [G,,C,-]2 C, C,2 F, | B,,3 E,2 E, | %7
w: sam- * * men|en- * * som|ly- * ser en|stjer- ne saa|
w: ||||
!<(! ([A,,E,]3!<)!!>(! [=G,,C,]2)!>)! z | [F,,C,]3 [F,,C,]2 C, | %9
w: ren, *|sky- er- ne|
w: ||
!<(! [C,E,]2!<)!!>(! [F,,C,]!>)!!<(! [C,E,]2!<)!!>(! [F,,C,]!>)! | [F,,C,]3 [F,,C,]2 C, | %11
w: tun- ge drøm- me,|blom- ster- nes|
w: ||
!<(! [D,^E,]2!>(! [F,,D,]!>)!!<)!!<(! [D,E,]2!>(! [F,,D,]!<)!!>)! | %12
w: øj- ne svøm- me,|
w: |
!pp!!<(! ([F,,C,]3 [D,F,]3)!<)! | [D,F,]3!>(! F,3!>)! |!<(! F,3!<)!!>(! D,2!>)! z | %15
w: un- *|der- ligt|vin- den|
w: |||
!<(! C,3-!<)! C,!>(!D,!>)! z | (C,3!<)!!<(!!<(! C,)!>(!D,!>)! z!<)! | %17
w: su- * ser,||
w: |su- * ser,|
!<(!!>(! C,3-!<)!!>(! C,!>)!C,!>)! z |"^sempre"!pp! ([F,,C,]3 F,3- | F,3) F,2 z | z6 | %21
w: |su- *|* ser,||
w: su- * ser,||||
 z2 z!ppp! (F,3- |!<(! F,3- [C,F,-]3!<)! |!>(! [C,F,]6)!>)! | [C,F,]3 z2 z |] %25
w: su-|||ser.|
w: ||||
V:7
 x6 | x6 | x6 | x6 | x6 | x6 | x6 | x6 | x6 | x6 | x6 | x6 | x6 | x6 | x6 | x6 | z2 F,,- F,,3- | %17
w: ||||||||||||||||vin- *|
 F,,3- F,,F,, z | x6 | x6 | x6 | x6 | x6 | x6 | x6 |] %25
w: * * den||||||||

